static/logos/tripadvisor-wordmark-color.svg

<svg width="100" height="22" viewBox="0 0 100 22" fill="none" xmlns="http://www.w3.org/2000/svg">
<g clip-path="url(#clip0_1_644)">
<path d="M31.728 8.53091V7.17052H29.6422V15.2638H31.728V10.411C31.728 9.53219 32.2915 9.10051 33.1704 9.10051H34.3118V7.17055H33.3368C32.5734 7.17052 31.9099 7.56888 31.728 8.53091ZM36.2655 3.96936C35.5522 3.96936 35.0051 4.53302 35.0051 5.24651C35.0051 5.94335 35.5522 6.50701 36.2655 6.50701C36.9792 6.50701 37.5263 5.94335 37.5263 5.24651C37.5263 4.53299 36.9792 3.96936 36.2655 3.96936ZM35.2253 15.2639H37.3061V7.17052H35.2253V15.2639ZM47.219 11.2172C47.219 13.5277 45.3461 15.4006 43.0355 15.4006C42.1033 15.4006 41.2578 15.095 40.58 14.5789V17.6398H38.4988V7.17052H40.58V7.85546C41.2578 7.33938 42.1033 7.03377 43.0355 7.03377C45.3461 7.03377 47.219 8.90668 47.219 11.2172ZM45.1247 11.2172C45.1247 9.96265 44.1068 8.94472 42.8524 8.94472C41.5979 8.94472 40.58 9.96265 40.58 11.2172C40.58 12.4717 41.5979 13.4896 42.8524 13.4896C44.1068 13.4896 45.1247 12.4729 45.1247 11.2172ZM83.3879 10.5073L82.174 10.1743C81.3747 9.9662 81.0645 9.72124 81.0645 9.2991C81.0645 8.88765 81.5018 8.59988 82.1274 8.59988C82.7232 8.59988 83.1907 8.98992 83.1907 9.48935V9.53571H85.1086V9.48935C85.1086 8.02073 83.9111 7.03374 82.1274 7.03374C80.3616 7.03374 79.0785 8.01954 79.0785 9.37873C79.0785 10.4359 79.779 11.2326 81.0012 11.5632L82.1644 11.8807C83.0478 12.1257 83.3759 12.3968 83.3759 12.8832C83.3759 13.3957 82.9016 13.7405 82.1951 13.7405C81.4592 13.7405 80.9633 13.2744 80.9633 12.5823V12.5359H78.9275V12.5823C78.9275 14.2424 80.2641 15.403 82.1787 15.403C84.023 15.403 85.3619 14.2697 85.3619 12.7095C85.3619 11.9437 85.0194 10.9425 83.3879 10.5073ZM54.6012 7.17052H56.682V15.2638H54.6012V14.5789C53.9234 15.095 53.0779 15.4006 52.1456 15.4006C49.8351 15.4006 47.9621 13.5277 47.9621 11.2172C47.9621 8.90662 49.8351 7.03374 52.1456 7.03374C53.0779 7.03374 53.9234 7.33935 54.6012 7.85543V7.17052ZM54.6012 11.2172C54.6012 9.96146 53.5833 8.94472 52.3285 8.94472C51.074 8.94472 50.0561 9.96265 50.0561 11.2172C50.0561 12.4717 51.074 13.4896 52.3285 13.4896C53.5845 13.4896 54.6012 12.4729 54.6012 11.2172ZM64.1963 4.29042H66.2775V15.265H64.1963V14.5801C63.5185 15.0962 62.6731 15.4018 61.7408 15.4018C59.4302 15.4018 57.5573 13.5289 57.5573 11.2183C57.5573 8.90782 59.4302 7.03493 61.7408 7.03493C62.6731 7.03493 63.5185 7.34054 64.1963 7.85662V4.29042ZM64.1963 11.2172C64.1963 9.96265 63.1784 8.94472 61.924 8.94472C60.6695 8.94472 59.6513 9.96265 59.6513 11.2172C59.6513 12.4717 60.668 13.4896 61.924 13.4896C63.1784 13.4896 64.1963 12.4729 64.1963 11.2172ZM75.9392 15.2639H78.02V7.17052H75.9392V15.2639ZM76.9798 3.96936C76.2662 3.96936 75.719 4.53302 75.719 5.24651C75.719 5.94335 76.2662 6.50701 76.9798 6.50701C77.6931 6.50701 78.2402 5.94335 78.2402 5.24651C78.2402 4.53299 77.6931 3.96936 76.9798 3.96936ZM94.3565 11.2172C94.3565 13.5277 92.4836 15.4006 90.1731 15.4006C87.8628 15.4006 85.9899 13.5277 85.9899 11.2172C85.9899 8.90665 87.8628 7.03377 90.1731 7.03377C92.4836 7.03377 94.3565 8.90668 94.3565 11.2172ZM92.4457 11.2172C92.4457 9.96265 91.4278 8.94472 90.1731 8.94472C88.9186 8.94472 87.9007 9.96265 87.9007 11.2172C87.9007 12.4717 88.9174 13.4896 90.1731 13.4896C91.4278 13.4896 92.4457 12.4729 92.4457 11.2172ZM30.6623 4.29042H22.6797V6.14669H25.6347V15.2638H27.7086V6.14669H30.6635V4.29042H30.6623ZM71.0329 13.0473L69.1811 7.17055H66.9956L69.7721 15.2639H72.2766L75.0698 7.17055H72.8843L71.0329 13.0473ZM97.4055 8.53091V7.17052H95.3199V15.2638H97.4055V10.411C97.4055 9.53219 97.9693 9.10051 98.8479 9.10051H99.9896V7.17055H99.0147C98.2509 7.17052 97.5886 7.56888 97.4055 8.53091Z" fill="black"/>
<path d="M10.6428 21.2857C16.5207 21.2857 21.2857 16.5207 21.2857 10.6428C21.2857 4.76498 16.5207 0 10.6428 0C4.76495 0 0 4.76498 0 10.6428C0 16.5207 4.76495 21.2857 10.6428 21.2857Z" fill="#34E0A1"/>
<path d="M17.2181 8.56657L18.5024 7.16931H15.6544C14.2287 6.19539 12.5068 5.62817 10.6446 5.62817C8.78471 5.62817 7.06761 6.19661 5.64419 7.16931H2.78906L4.07334 8.56657C3.28614 9.2848 2.79264 10.3194 2.79264 11.4681C2.79264 13.6359 4.55022 15.3934 6.71803 15.3934C7.74783 15.3934 8.68605 14.9963 9.38647 14.347L10.6446 15.7169L11.9027 14.3482C12.6031 14.9975 13.5401 15.3934 14.5699 15.3934C16.7378 15.3934 18.4977 13.6359 18.4977 11.4681C18.4988 10.3182 18.0054 9.28363 17.2181 8.56657ZM6.71919 14.1246C5.25177 14.1246 4.06266 12.9355 4.06266 11.4681C4.06266 10.0007 5.2518 8.81153 6.71919 8.81153C8.18659 8.81153 9.37573 10.0007 9.37573 11.4681C9.37573 12.9355 8.18659 14.1246 6.71919 14.1246ZM10.6457 11.3908C10.6457 9.64273 9.37456 8.14205 7.69667 7.50109C8.60398 7.12173 9.59929 6.91126 10.6446 6.91126C11.6898 6.91126 12.6863 7.12173 13.5936 7.50109C11.917 8.14324 10.6457 9.64276 10.6457 11.3908ZM14.5711 14.1246C13.1037 14.1246 11.9146 12.9355 11.9146 11.4681C11.9146 10.0007 13.1037 8.81153 14.5711 8.81153C16.0386 8.81153 17.2277 10.0007 17.2277 11.4681C17.2277 12.9355 16.0385 14.1246 14.5711 14.1246ZM14.5711 10.0744C13.8017 10.0744 13.1786 10.6975 13.1786 11.4669C13.1786 12.2363 13.8017 12.8594 14.5711 12.8594C15.3405 12.8594 15.9636 12.2363 15.9636 11.4669C15.9636 10.6987 15.3405 10.0744 14.5711 10.0744ZM8.11168 11.4681C8.11168 12.2375 7.48856 12.8606 6.71919 12.8606C5.94983 12.8606 5.32671 12.2375 5.32671 11.4681C5.32671 10.6987 5.94983 10.0756 6.71919 10.0756C7.48856 10.0744 8.11168 10.6987 8.11168 11.4681Z" fill="black"/>
</g>
<defs>
<clipPath id="clip0_1_644">
<rect width="100" height="21.3007" fill="white"/>
</clipPath>
</defs>
</svg>

<svg xmlns="http://www.w3.org/2000/svg" width="290.909" height="64" fill="none" viewBox="0 0 100 22"><g clip-path="url(#a)"><path fill="#000" d="M31.728 8.53V7.17h-2.086v8.094h2.086V10.41c0-.879.563-1.31 1.442-1.31h1.142V7.17h-.975c-.764 0-1.427.398-1.609 1.36Zm4.538-4.56c-.714 0-1.26.563-1.26 1.277 0 .696.546 1.26 1.26 1.26a1.25 1.25 0 0 0 1.26-1.26c0-.714-.547-1.278-1.26-1.278Zm-1.04 11.294h2.08V7.17h-2.08v8.093Zm11.993-4.047a4.183 4.183 0 0 1-4.184 4.184 4.025 4.025 0 0 1-2.455-.822v3.06h-2.081V7.172h2.081v.684a4.025 4.025 0 0 1 2.456-.821 4.183 4.183 0 0 1 4.183 4.183Zm-2.094 0a2.273 2.273 0 1 0-4.546.001 2.273 2.273 0 0 0 4.546 0Zm38.263-.71-1.214-.333c-.8-.208-1.11-.453-1.11-.875 0-.411.438-.7 1.063-.7.596 0 1.064.39 1.064.89v.047h1.918v-.047c0-1.468-1.198-2.455-2.982-2.455-1.765 0-3.048.986-3.048 2.345 0 1.057.7 1.854 1.922 2.184l1.163.318c.884.245 1.212.516 1.212 1.002 0 .513-.474.858-1.18.858-.737 0-1.233-.467-1.233-1.159v-.046h-2.035v.046c0 1.66 1.336 2.821 3.25 2.821 1.845 0 3.184-1.133 3.184-2.694 0-.765-.343-1.766-1.974-2.202ZM54.6 7.171h2.081v8.093h-2.08v-.685a4.025 4.025 0 0 1-2.456.822 4.183 4.183 0 1 1 0-8.367c.932 0 1.777.305 2.455.821v-.684Zm0 4.046a2.272 2.272 0 1 0-4.545 0 2.272 2.272 0 0 0 4.545 0Zm9.595-6.927h2.082v10.975h-2.082v-.685a4.025 4.025 0 0 1-2.455.822 4.183 4.183 0 1 1 0-8.367c.932 0 1.778.306 2.455.822V4.29Zm0 6.927a2.273 2.273 0 1 0-4.546.001 2.273 2.273 0 0 0 4.546 0Zm11.743 4.047h2.081V7.17h-2.08v8.093Zm1.04-11.295c-.713 0-1.26.564-1.26 1.278 0 .696.547 1.26 1.26 1.26a1.25 1.25 0 0 0 1.261-1.26c0-.714-.547-1.278-1.26-1.278Zm17.377 7.248a4.183 4.183 0 1 1-8.366 0 4.183 4.183 0 0 1 8.367 0Zm-1.91 0a2.273 2.273 0 1 0-4.547.002 2.273 2.273 0 0 0 4.547-.002ZM30.662 4.29H22.68v1.857h2.955v9.117h2.074V6.147h2.954V4.29Zm40.37 8.757-1.85-5.876h-2.186l2.776 8.093h2.505L75.07 7.17h-2.186l-1.851 5.876Zm26.374-4.516V7.17H95.32v8.093h2.086V10.41c0-.879.563-1.31 1.442-1.31h1.142V7.17h-.975c-.764 0-1.426.398-1.61 1.36Z"/><path fill="#34E0A1" d="M10.643 21.286c5.878 0 10.643-4.765 10.643-10.643C21.286 4.765 16.52 0 10.643 0 4.765 0 0 4.765 0 10.643c0 5.878 4.765 10.643 10.643 10.643Z"/><path fill="#000" d="m17.218 8.567 1.284-1.398h-2.848a8.842 8.842 0 0 0-5.01-1.54 8.82 8.82 0 0 0-5 1.54H2.79l1.284 1.398a3.925 3.925 0 1 0 5.313 5.78l1.259 1.37 1.258-1.369a3.927 3.927 0 1 0 5.315-5.782ZM6.72 14.125a2.656 2.656 0 1 1 0-5.313 2.656 2.656 0 0 1 0 5.313Zm3.927-2.734c0-1.748-1.271-3.249-2.95-3.89a7.623 7.623 0 0 1 2.949-.59c1.045 0 2.041.21 2.949.59-1.677.642-2.948 2.142-2.948 3.89Zm3.925 2.734a2.656 2.656 0 1 1 0-5.313 2.656 2.656 0 0 1 0 5.313Zm0-4.05a1.392 1.392 0 1 0 0 2.784 1.392 1.392 0 0 0 0-2.785Zm-6.46 1.393a1.392 1.392 0 1 1-2.783.001 1.392 1.392 0 0 1 2.784 0Z"/></g><defs><clipPath id="a"><path fill="#fff" d="M0 0h100v21.301H0z"/></clipPath></defs></svg>
